X:1
T:Title
%%score { ( 1 4 ) | ( 2 3 ) }
L:1/8
Q:1/4=87
M:6/8
K:Bb
V:1 bass nm="Grand Piano"
V:4 bass 
V:2 bass 
V:3 bass 
V:1
 [F,B,D][F,CE][K:treble][B,_D=E] .[B,=DF]2 [B,_EG] | [B,DF]3 [F,B,D]3 | [B,DF][G,EG][DB] cB[B,EG] | %3
w: A.~B.~Simpson * * * *|||
 [B,DF]6 | z3[K:treble] .[=DF]3 | d3 [DB]3 | ccc B2 A | [DB]6 | [Fd][DB][EG] [DF][B,D][CE] | %9
w: ||||||
 [DF]3 [DB]3 | [EG][Ge]e d2 [FB] | [Fc]6 | [Fd][DB][EG] [DF][B,D][CE] | %13
w: ||||
[M:7/8] [DF]2 [DF] [EG] [Ge]3 |[M:3/4] dB c d2 c | [DB]6 |] %16
w: |||
V:2
 B,,B,,B,, z[K:treble] B[K:bass]B,, | B,,3 B,,3 | B,,B,,[B,,F,] [E,G,E]2 E, | B,,6 | %4
 B,,B,,B,, B,,D,[K:treble][F,A,F] | [B,F]3[K:bass] [B,,F,]3 | [E,G,E][E,G,E][E,G,E] [F,D]2 [F,C] | %7
 [B,,F,]6 | [B,,B,][B,,B,][B,,B,] [B,,B,][B,,F,][B,,F,] | [B,,B,]3 [B,,B,]3 | %10
 [E,B,][E,B,][K:treble][G,B,G] [B,F]2[K:bass] [D,B,] | [F,A,]6 | %12
 [B,,B,][B,,B,][B,,B,] [B,,B,][B,,F,][B,,F,] |[M:7/8] [B,,B,]2 [B,,B,] [E,B,] [E,B,]3 | %14
[M:3/4] [F,B,F][F,B,D] [F,B,E] [F,B,F]2 [F,A,E] | [B,,F,B,]6 |] %16
V:3
 z3 .B,,3[K:treble][K:bass] | x6 | x6 | x6 | x5[K:treble] x | x3[K:bass] x3 | x6 | x6 | x6 | x6 | %10
 x2[K:treble] x3[K:bass] x | x6 | x6 |[M:7/8] x7 |[M:3/4] x6 | x6 |] %16
V:4
 x2[K:treble] x4 | x6 | x6 | x6 | [F,B,D][F,CE][K:treble][B,_D=E] B,-[B,FB]c | x6 | x6 | x6 | x6 | %9
 x6 | x6 | x6 | x6 |[M:7/8] x7 |[M:3/4] x6 | x6 |] %16

